X:69
T:Frost is All Over, The
M:6/8
R:reel
K:D
ADD DFA | AAd (B/d/B)A | ABA F2F | GFG EFG |
ADD DFA | AAd (B/d/B)A | ABA FEE |[1 EDD D3 :|[2 EDD D2e |]
|: fdd ede | fdd d2e | fef def | g2g efg |
efe BAA | AdA F2A | ABA FEE |[1 EDD D2 e :|[2 EDD D3 |]

